packages/foundations/assets/icons/functional/images/maps/location_arrow_north_12_filled.svg

<svg width="12" height="12" viewBox="0 0 12 12" fill="none" xmlns="http://www.w3.org/2000/svg">
<g clip-path="url(#clip0_2213_4856)">
<path fill-rule="evenodd" clip-rule="evenodd" d="M6.00014 4.13479C6.31171 4.13586 6.45337 4.35161 6.51449 4.51053L8.73743 10.296C8.83147 10.5405 8.7095 10.8149 8.46501 10.9089C8.29006 10.9762 8.09189 10.9342 7.95936 10.8016L6.00014 8.84221L4.0404 10.8019C3.85518 10.9872 3.55487 10.9872 3.36964 10.8019C3.23711 10.6694 3.19506 10.4713 3.26233 10.2963L5.48955 4.51044C5.55063 4.35161 5.66866 4.13369 6.00014 4.13479ZM5.99994 1.05913C6.31554 1.05913 6.57564 1.29669 6.61119 1.60275L6.61533 1.67452V2.72183C6.61533 3.0617 6.33981 3.33722 5.99994 3.33722C5.68435 3.33722 5.42425 3.09965 5.3887 2.7936L5.38456 2.72183V1.67452C5.38456 1.33465 5.66008 1.05913 5.99994 1.05913Z" fill="#1A1C1F"/>
</g>
<defs>
<clipPath id="clip0_2213_4856">
<rect width="12" height="12" fill="white"/>
</clipPath>
</defs>
</svg>

<svg xmlns="http://www.w3.org/2000/svg" width="12" height="12" fill="none"><g clip-path="url(#a)"><path fill="#1A1C1F" fill-rule="evenodd" d="M6 4.135c.312 0 .453.217.514.376l2.223 5.785a.474.474 0 0 1-.778.506L6 8.842l-1.96 1.96a.474.474 0 0 1-.778-.506L5.49 4.51c.06-.158.179-.376.51-.375m0-3.076c.316 0 .576.238.611.544l.004.072v1.047a.615.615 0 0 1-1.226.072l-.004-.072V1.675c0-.34.275-.616.615-.616" clip-rule="evenodd"/></g><defs><clipPath id="a"><path fill="#fff" d="M0 0h12v12H0z"/></clipPath></defs></svg>
